img/svg/service-animal.svg

<?xml version="1.0" encoding="utf-8"?><!DOCTYPE svg PUBLIC "-//W3C//DTD SVG 1.1//EN" "http://www.w3.org/Graphics/SVG/1.1/DTD/svg11.dtd"><svg version="1.1" baseProfile="full" xmlns="http://www.w3.org/2000/svg" xmlns:xlink="http://www.w3.org/1999/xlink" xmlns:ev="http://www.w3.org/2001/xml-events"   height="12px"   width="11px" ><path fill="rgb( 255, 102, 0 )" d="M5.5,5.197 C5.875,5.197 6.209,5.30599999999998 6.50400000000002,5.52499999999998 C6.798,5.74400000000003 6.99900000000002,6.02100000000002 7.10599999999999,6.35700000000003 C7.12400000000002,6.44099999999997 7.16800000000001,6.63900000000001 7.24000000000001,6.94999999999999 C7.31099999999998,7.26100000000002 7.36900000000003,7.48399999999998 7.41399999999999,7.61900000000003 C7.45800000000003,7.75299999999999 7.55599999999998,7.91699999999997 7.70800000000003,8.11099999999999 C7.86000000000001,8.30399999999997 8.06,8.45999999999998 8.31,8.577 C8.75599999999997,8.71199999999999 9.07299999999998,8.89299999999997 9.25999999999999,9.12 C9.44799999999998,9.34699999999998 9.541,9.69600000000003 9.541,10.167 C9.541,10.57 9.38499999999999,10.945 9.07299999999998,11.289 C8.76100000000002,11.634 8.38200000000001,11.832 7.93599999999998,11.882 C7.02600000000001,12 6.214,11.865 5.5,11.479 C4.786,11.865 3.97500000000002,12 3.065,11.882 C2.61799999999999,11.832 2.23899999999998,11.634 1.92700000000002,11.289 C1.61500000000001,10.945 1.459,10.57 1.459,10.167 C1.459,9.71300000000002 1.55700000000002,9.36799999999999 1.75299999999999,9.13200000000001 C1.94900000000001,8.89699999999999 2.27100000000002,8.70400000000001 2.71699999999998,8.55200000000002 C2.98399999999998,8.43400000000003 3.19400000000002,8.279 3.346,8.08600000000001 C3.49700000000001,7.892 3.59500000000003,7.71600000000001 3.63999999999999,7.55599999999998 C3.68400000000003,7.39600000000002 3.73399999999998,7.18099999999998 3.78699999999998,6.91199999999998 C3.84100000000001,6.64299999999997 3.88499999999999,6.44099999999997 3.92099999999999,6.30700000000002 C4.00999999999999,5.98700000000002 4.202,5.72300000000001 4.49599999999998,5.512 C4.791,5.30200000000002 5.125,5.197 5.5,5.197 C5.5,5.197 5.5,5.197 5.5,5.197 ZM10.532,4.61700000000002 C10.407,4.51600000000002 10.139,4.608 9.72899999999998,4.89400000000001 C9.31799999999998,5.18000000000001 9.00599999999997,5.44900000000001 8.79199999999997,5.70100000000002 C8.56,5.95400000000001 8.44400000000002,6.25200000000001 8.44400000000002,6.59699999999998 C8.44400000000002,6.94200000000001 8.56,7.24000000000001 8.79199999999997,7.49299999999999 C9.024,7.745 9.30900000000003,7.87099999999998 9.64800000000002,7.87099999999998 C9.88,7.87099999999998 10.099,7.79500000000002 10.304,7.64400000000001 C10.509,7.49299999999999 10.657,7.29899999999998 10.746,7.06400000000002 C10.924,6.66000000000003 11,6.20600000000002 10.973,5.70100000000002 C10.947,5.197 10.799,4.83499999999998 10.532,4.61700000000002 C10.532,4.61700000000002 10.532,4.61700000000002 10.532,4.61700000000002 ZM0.46800000000002,4.61700000000002 C0.20100000000002,4.83499999999998 0.05399999999997,5.197 0.02699999999999,5.70100000000002 C0,6.20600000000002 0.07600000000002,6.66000000000003 0.25400000000002,7.06400000000002 C0.34300000000002,7.29899999999998 0.49099999999999,7.49299999999999 0.69600000000003,7.64400000000001 C0.90100000000001,7.79500000000002 1.12,7.87099999999998 1.35199999999998,7.87099999999998 C1.69099999999997,7.87099999999998 1.976,7.745 2.20800000000003,7.49299999999999 C2.44,7.24000000000001 2.55599999999998,6.94200000000001 2.55599999999998,6.59699999999998 C2.55599999999998,6.25200000000001 2.44,5.95400000000001 2.20800000000003,5.70100000000002 C1.99400000000003,5.44900000000001 1.68200000000002,5.18000000000001 1.27100000000002,4.89400000000001 C0.86099999999999,4.608 0.59300000000002,4.51600000000002 0.46800000000002,4.61700000000002 C0.46800000000002,4.61700000000002 0.46800000000002,4.61700000000002 0.46800000000002,4.61700000000002 ZM6.97199999999998,0.05000000000001 C7.91800000000001,0.202 8.55099999999999,0.75700000000001 8.87200000000001,1.71499999999997 C9.15800000000002,2.58999999999997 9.077,3.33800000000002 8.63099999999997,3.96100000000001 C8.31,4.43200000000002 7.87299999999999,4.61700000000002 7.31999999999999,4.51600000000002 C6.99900000000002,4.46499999999997 6.73099999999999,4.31799999999998 6.517,4.07400000000001 C6.303,3.82999999999998 6.178,3.54899999999998 6.142,3.22899999999998 C6.10700000000003,2.97699999999998 6.089,2.69900000000001 6.089,2.39699999999999 C6.089,2.09399999999999 6.10199999999998,1.74099999999999 6.12900000000002,1.33699999999999 C6.15600000000001,0.93299999999999 6.24000000000001,0.60599999999999 6.38299999999998,0.35300000000001 C6.52600000000001,0.101 6.72199999999998,0 6.97199999999998,0.05000000000001 C6.97199999999998,0.05000000000001 6.97199999999998,0.05000000000001 6.97199999999998,0.05000000000001 ZM4.02800000000002,0.05000000000001 C4.27800000000002,0 4.47399999999999,0.101 4.61700000000002,0.35300000000001 C4.75999999999999,0.60599999999999 4.84399999999999,0.93299999999999 4.87099999999998,1.33699999999999 C4.89800000000002,1.74099999999999 4.911,2.09399999999999 4.911,2.39699999999999 C4.911,2.69900000000001 4.89299999999997,2.97699999999998 4.858,3.22899999999998 C4.822,3.54899999999998 4.697,3.82999999999998 4.483,4.07400000000001 C4.26900000000001,4.31799999999998 4.00099999999998,4.46499999999997 3.68000000000001,4.51600000000002 C2.94900000000001,4.63400000000001 2.44,4.30599999999998 2.15499999999997,3.53199999999998 C1.851,2.72500000000002 1.923,1.93400000000003 2.36900000000003,1.16000000000003 C2.74299999999999,0.53800000000001 3.29599999999999,0.16800000000001 4.02800000000002,0.05000000000001 C4.02800000000002,0.05000000000001 4.02800000000002,0.05000000000001 4.02800000000002,0.05000000000001 Z "/></svg>

<svg baseProfile="full" xmlns="http://www.w3.org/2000/svg" height="12" width="11"><path fill="rgb( 255, 102, 0 )" d="M5.5 5.197c.375 0 .709.109 1.004.328.294.219.495.496.602.832l.134.593c.071.311.129.534.174.669.044.134.142.298.294.492.152.193.352.349.602.466.446.135.763.316.95.543.188.227.281.576.281 1.047 0 .403-.156.778-.468 1.122-.312.345-.691.543-1.137.593-.91.118-1.722-.017-2.436-.403-.714.386-1.525.521-2.435.403-.447-.05-.826-.248-1.138-.593-.312-.344-.468-.719-.468-1.122 0-.454.098-.799.294-1.035.196-.235.518-.428.964-.58.267-.118.477-.273.629-.466.151-.194.249-.37.294-.53.044-.16.094-.375.147-.644l.134-.605c.089-.32.281-.584.575-.795.295-.21.629-.315 1.004-.315zm5.032-.58c-.125-.101-.393-.009-.803.277-.411.286-.723.555-.937.807-.232.253-.348.551-.348.896s.116.643.348.896c.232.252.517.378.856.378.232 0 .451-.076.656-.227.205-.151.353-.345.442-.58.178-.404.254-.858.227-1.363-.026-.504-.174-.866-.441-1.084zm-10.064 0c-.267.218-.414.58-.441 1.084-.027.505.049.959.227 1.363.089.235.237.429.442.58.205.151.424.227.656.227.339 0 .624-.126.856-.378.232-.253.348-.551.348-.896s-.116-.643-.348-.896c-.214-.252-.526-.521-.937-.807-.41-.286-.678-.378-.803-.277zm6.504-4.567c.946.152 1.579.707 1.9 1.665.286.875.205 1.623-.241 2.246-.321.471-.758.656-1.311.555-.321-.051-.589-.198-.803-.442-.214-.244-.339-.525-.375-.845-.035-.252-.053-.53-.053-.832 0-.303.013-.656.04-1.06.027-.404.111-.731.254-.984.143-.252.339-.353.589-.303zm-2.944 0c.25-.05.446.051.589.303.143.253.227.58.254.984.027.404.04.757.04 1.06 0 .302-.018.58-.053.832-.036.32-.161.601-.375.845s-.482.391-.803.442c-.731.118-1.24-.21-1.525-.984-.304-.807-.232-1.598.214-2.372.374-.622.927-.992 1.659-1.11z"/></svg>
